Tela/other/panel/xfce4-fsguard-plugin-urgent.svg

<svg xmlns="http://www.w3.org/2000/svg" width="22" height="22" version="1.1">
 <defs>
  <style id="current-color-scheme" type="text/css">
   .ColorScheme-Text { color:#dfdfdf; } .ColorScheme-Highlight { color:#5294e2; }
  </style>
 </defs>
 <g>
  <path style="fill:currentColor" class="ColorScheme-Text" d="M 6,4 C 5.446,4 5,4.446 5,5 v 14 c 0,0.554 0.446,1 1,1 h 7.005859 c -2.92e-4,-0.02301 -0.0063,-0.04528 -0.0059,-0.06836 0.007,-0.321067 0.08528,-0.637331 0.234375,-0.925782 l 1.792969,-3.476562 1.792968,-3.478516 c 0.299841,-0.581085 0.885683,-1.007688 1.570313,-1.048828 h 0.002 0.002 c 0.06672,-0.0038 0.134442,-0.0036 0.201172,0 0.14049,0.0074 0.273488,0.04215 0.404297,0.08008 V 5 C 19,4.446 18.554,4 18,4 Z m 6,3 c 2.209139,0 4,1.790861 4,4 0,2.209139 -1.790861,4 -4,4 H 8 V 11 C 8,8.790861 9.790861,7 12,7 Z m 0,2 c -1.10457,0 -2,0.8954305 -2,2 0,1.104569 0.895431,2 2,2 1.104569,0 2,-0.895431 2,-2 0,-1.1045695 -0.895431,-2 -2,-2 z" transform="translate(-1,-1)"/>
 </g>
 <path style="fill:currentColor" class="ColorScheme-Highlight" d="m 17.451172,11 a 0.91368861,1.0229285 0 0 0 -0.742188,0.509766 l -1.792968,3.478515 -1.792969,3.476563 A 0.91368861,1.0229285 0 0 0 13,18.953125 0.91368861,1.0229285 0 0 0 13.914062,20 H 17.5 21.085938 a 0.91368861,1.0229285 0 0 0 0.791015,-1.535156 L 20.083984,14.988281 18.291016,11.509766 A 0.91368861,1.0229285 0 0 0 17.542969,11 a 0.91368861,1.0229285 0 0 0 -0.0918,0 z M 17,13 h 1 v 4 h -1 z m 0,5 h 1 v 1 h -1 z"/>
</svg>

<svg xmlns="http://www.w3.org/2000/svg" width="24" height="24" version="1.1">
 <defs>
  <style id="current-color-scheme" type="text/css">
   .ColorScheme-Text { color:#dfdfdf; } .ColorScheme-Highlight { color:#5294e2; }
  </style>
 </defs>
 <g transform="translate(1,1)">
  <path style="fill:currentColor" class="ColorScheme-Text" d="M 6 4 C 5.446 4 5 4.446 5 5 L 5 19 C 5 19.554 5.446 20 6 20 L 13.005859 20 C 13.005567 19.976987 12.999517 19.95472 13 19.931641 C 13.006994 19.610574 13.085278 19.29431 13.234375 19.005859 L 15.027344 15.529297 L 16.820312 12.050781 C 17.120153 11.469696 17.705995 11.043093 18.390625 11.001953 L 18.392578 11.001953 L 18.394531 11.001953 C 18.461249 10.998153 18.528973 10.998353 18.595703 11.001953 C 18.736193 11.009353 18.869191 11.044103 19 11.082031 L 19 5 C 19 4.446 18.554 4 18 4 L 6 4 z M 12 7 C 14.209139 7 16 8.790861 16 11 C 16 13.209139 14.209139 15 12 15 L 8 15 L 8 11 C 8 8.790861 9.790861 7 12 7 z M 12 9 C 10.89543 9 10 9.8954305 10 11 C 10 12.104569 10.895431 13 12 13 C 13.104569 13 14 12.104569 14 11 C 14 9.8954305 13.104569 9 12 9 z" transform="translate(-1,-1)"/>
 </g>
 <path style="fill:currentColor" class="ColorScheme-Highlight" d="M 18.451172 12 A 0.91368861 1.0229285 0 0 0 17.708984 12.509766 L 15.916016 15.988281 L 14.123047 19.464844 A 0.91368861 1.0229285 0 0 0 14 19.953125 A 0.91368861 1.0229285 0 0 0 14.914062 21 L 18.5 21 L 22.085938 21 A 0.91368861 1.0229285 0 0 0 22.876953 19.464844 L 21.083984 15.988281 L 19.291016 12.509766 A 0.91368861 1.0229285 0 0 0 18.542969 12 A 0.91368861 1.0229285 0 0 0 18.451172 12 z M 18 14 L 19 14 L 19 18 L 18 18 L 18 14 z M 18 19 L 19 19 L 19 20 L 18 20 L 18 19 z"/>
</svg>
